X:65
T:Arrobu
R:Xiraldilla
C:Tradicional
S:Msica Tradicional Asturiana, (C) Tello & Tito. Asturies, 2001.
S:http://pagina.de/MusTradAst <telloytito@asturies.org>
A:Asturies
B:Musicologa Asturiana - La Cancin Tradicional, Modesto Gonzlez Cobas
Z:La Cancin Tradicional, M.G.C.
M:2/4
L:1/8
Q:1/4=100
K:G
G
|A2 GG|G2 z G|A2 GG|G2 z A|Bc cc|B>A GB|A2 GG|G2 z G|
|A2 GG|G2 z G|A2 GG|G2 z G|A2 GG|G2 z A|Bc dd|c>B Ad|c2 GG|G4|
W:arroyo clar fuente serena quien te lava el pauelo saber quisiera
W:una rorena una lo lava otra lo tiende y otra le tira rosas y otra claveles
W:
